X:1
T:Bundle and Go -- Jig
R:jig
B:Ryan's Mammoth Collection
N: 83 423
Z: Contributed by Ray Davies,  ray:davies99.freeserve.co.uk
M:6/8
L:1/8
K:G
vGBB BAG | FAA AGF | GBB BAG | AGF E3 |
 GBB BAG | FAA AGF | GAB ABc | AGF G2:|
|:vEee efg | fdB AGF | Eee efg | fdB d3 |
   Eee dfg | fdB AGF | GAB ABc | AGF G2:|
